images/50368395.svg

<?xml version="1.0" encoding="UTF-8"?>
<svg xmlns="http://www.w3.org/2000/svg" xmlns:xlink="http://www.w3.org/1999/xlink" width="300pt" height="300pt" viewBox="0 0 300 300" version="1.1">
<defs>
<g>
<symbol overflow="visible" id="glyph0-0">
<path style="stroke:none;" d="M 0.59375 2.125 L 0.59375 -8.46875 L 6.59375 -8.46875 L 6.59375 2.125 Z M 1.265625 1.453125 L 5.9375 1.453125 L 5.9375 -7.78125 L 1.265625 -7.78125 Z M 1.265625 1.453125 "/>
</symbol>
<symbol overflow="visible" id="glyph0-1">
<path style="stroke:none;" d="M 4.734375 -7.953125 C 3.867188 -7.953125 3.179688 -7.628906 2.671875 -6.984375 C 2.171875 -6.347656 1.921875 -5.472656 1.921875 -4.359375 C 1.921875 -3.265625 2.171875 -2.394531 2.671875 -1.75 C 3.179688 -1.113281 3.867188 -0.796875 4.734375 -0.796875 C 5.585938 -0.796875 6.265625 -1.113281 6.765625 -1.75 C 7.273438 -2.394531 7.53125 -3.265625 7.53125 -4.359375 C 7.53125 -5.472656 7.273438 -6.347656 6.765625 -6.984375 C 6.265625 -7.628906 5.585938 -7.953125 4.734375 -7.953125 Z M 4.734375 -8.90625 C 5.953125 -8.90625 6.925781 -8.492188 7.65625 -7.671875 C 8.394531 -6.847656 8.765625 -5.742188 8.765625 -4.359375 C 8.765625 -2.984375 8.394531 -1.882812 7.65625 -1.0625 C 6.925781 -0.238281 5.953125 0.171875 4.734375 0.171875 C 3.503906 0.171875 2.519531 -0.238281 1.78125 -1.0625 C 1.039062 -1.882812 0.671875 -2.984375 0.671875 -4.359375 C 0.671875 -5.742188 1.039062 -6.847656 1.78125 -7.671875 C 2.519531 -8.492188 3.503906 -8.90625 4.734375 -8.90625 Z M 4.734375 -8.90625 "/>
</symbol>
<symbol overflow="visible" id="glyph0-2">
<path style="stroke:none;" d="M 1.171875 -8.75 L 2.765625 -8.75 L 6.65625 -1.4375 L 6.65625 -8.75 L 7.796875 -8.75 L 7.796875 0 L 6.203125 0 L 2.328125 -7.3125 L 2.328125 0 L 1.171875 0 Z M 1.171875 -8.75 "/>
</symbol>
<symbol overflow="visible" id="glyph0-3">
<path style="stroke:none;" d="M 1.171875 -8.75 L 2.359375 -8.75 L 2.359375 -5.15625 L 6.65625 -5.15625 L 6.65625 -8.75 L 7.84375 -8.75 L 7.84375 0 L 6.65625 0 L 6.65625 -4.171875 L 2.359375 -4.171875 L 2.359375 0 L 1.171875 0 Z M 1.171875 -8.75 "/>
</symbol>
</g>
</defs>
<g id="surface12949">
<rect x="0" y="0" width="300" height="300" style="fill:rgb(100%,100%,100%);fill-opacity:1;stroke:none;"/>
<path style="fill:none;stroke-width:1.2;stroke-linecap:butt;stroke-linejoin:miter;stroke:rgb(100%,0%,0%);stroke-opacity:1;stroke-miterlimit:10;" d="M 162.0625 157.179688 L 174.898438 163.699219 "/>
<path style="fill:none;stroke-width:1.2;stroke-linecap:butt;stroke-linejoin:miter;stroke:rgb(0%,0%,0%);stroke-opacity:1;stroke-miterlimit:10;" d="M 174.898438 163.699219 L 187.734375 170.214844 "/>
<path style="fill:none;stroke-width:1.2;stroke-linecap:butt;stroke-linejoin:miter;stroke:rgb(0%,0%,0%);stroke-opacity:1;stroke-miterlimit:10;" d="M 137.9375 172.894531 L 150 165.035156 "/>
<path style="fill:none;stroke-width:1.2;stroke-linecap:butt;stroke-linejoin:miter;stroke:rgb(100%,0%,0%);stroke-opacity:1;stroke-miterlimit:10;" d="M 150 165.035156 L 162.0625 157.179688 "/>
<path style=" stroke:none;fill-rule:nonzero;fill:rgb(100%,100%,100%);fill-opacity:1;" d="M 157.0625 150.179688 L 167.0625 150.179688 L 167.0625 164.179688 L 157.0625 164.179688 Z M 157.0625 150.179688 "/>
<g style="fill:rgb(100%,0%,0%);fill-opacity:1;">
  <use xlink:href="#glyph0-1" x="157.0625" y="161.318359"/>
</g>
<path style="fill:none;stroke-width:1.2;stroke-linecap:butt;stroke-linejoin:miter;stroke:rgb(0%,0%,0%);stroke-opacity:1;stroke-miterlimit:10;" d="M 187.734375 170.214844 L 189.28125 198.96875 "/>
<path style="fill:none;stroke-width:1.2;stroke-linecap:butt;stroke-linejoin:miter;stroke:rgb(0%,0%,0%);stroke-opacity:1;stroke-miterlimit:10;" d="M 194.65625 172.726562 L 195.890625 195.730469 "/>
<path style="fill:none;stroke-width:1.2;stroke-linecap:butt;stroke-linejoin:miter;stroke:rgb(0%,0%,0%);stroke-opacity:1;stroke-miterlimit:10;" d="M 211.863281 154.503906 L 187.734375 170.214844 "/>
<path style="fill:none;stroke-width:1.2;stroke-linecap:butt;stroke-linejoin:miter;stroke:rgb(0%,0%,0%);stroke-opacity:1;stroke-miterlimit:10;" d="M 189.28125 198.96875 L 214.953125 212.003906 "/>
<path style="fill:none;stroke-width:1.2;stroke-linecap:butt;stroke-linejoin:miter;stroke:rgb(0%,0%,0%);stroke-opacity:1;stroke-miterlimit:10;" d="M 189.28125 198.96875 L 165.152344 214.679688 "/>
<path style="fill:none;stroke-width:1.2;stroke-linecap:butt;stroke-linejoin:miter;stroke:rgb(0%,0%,0%);stroke-opacity:1;stroke-miterlimit:10;" d="M 214.953125 212.003906 L 239.078125 196.292969 "/>
<path style="fill:none;stroke-width:1.2;stroke-linecap:butt;stroke-linejoin:miter;stroke:rgb(0%,0%,0%);stroke-opacity:1;stroke-miterlimit:10;" d="M 213.667969 204.757812 L 232.96875 192.1875 "/>
<path style="fill:none;stroke-width:1.2;stroke-linecap:butt;stroke-linejoin:miter;stroke:rgb(0%,0%,0%);stroke-opacity:1;stroke-miterlimit:10;" d="M 239.078125 196.292969 L 237.535156 167.539062 "/>
<path style="fill:none;stroke-width:1.2;stroke-linecap:butt;stroke-linejoin:miter;stroke:rgb(0%,0%,0%);stroke-opacity:1;stroke-miterlimit:10;" d="M 239.078125 196.292969 L 264.75 209.328125 "/>
<path style="fill:none;stroke-width:1.2;stroke-linecap:butt;stroke-linejoin:miter;stroke:rgb(0%,0%,0%);stroke-opacity:1;stroke-miterlimit:10;" d="M 237.535156 167.539062 L 211.863281 154.503906 "/>
<path style="fill:none;stroke-width:1.2;stroke-linecap:butt;stroke-linejoin:miter;stroke:rgb(0%,0%,0%);stroke-opacity:1;stroke-miterlimit:10;" d="M 231.898438 172.277344 L 211.359375 161.847656 "/>
<path style="fill:none;stroke-width:1.2;stroke-linecap:butt;stroke-linejoin:miter;stroke:rgb(0%,0%,0%);stroke-opacity:1;stroke-miterlimit:10;" d="M 211.863281 154.503906 L 211.089844 140.128906 "/>
<path style="fill:none;stroke-width:1.2;stroke-linecap:butt;stroke-linejoin:miter;stroke:rgb(0%,0%,100%);stroke-opacity:1;stroke-miterlimit:10;" d="M 211.089844 140.128906 L 210.316406 125.75 "/>
<path style="fill:none;stroke-width:1.2;stroke-linecap:butt;stroke-linejoin:miter;stroke:rgb(0%,0%,100%);stroke-opacity:1;stroke-miterlimit:10;" d="M 210.316406 125.75 L 198.230469 117.925781 "/>
<path style="fill:none;stroke-width:1.2;stroke-linecap:butt;stroke-linejoin:miter;stroke:rgb(0%,0%,0%);stroke-opacity:1;stroke-miterlimit:10;" d="M 198.230469 117.925781 L 186.148438 110.101562 "/>
<path style="fill:none;stroke-width:1.2;stroke-linecap:butt;stroke-linejoin:miter;stroke:rgb(0%,0%,0%);stroke-opacity:1;stroke-miterlimit:10;" d="M 232.667969 107.601562 L 221.492188 116.675781 "/>
<path style="fill:none;stroke-width:1.2;stroke-linecap:butt;stroke-linejoin:miter;stroke:rgb(0%,0%,100%);stroke-opacity:1;stroke-miterlimit:10;" d="M 221.492188 116.675781 L 210.316406 125.75 "/>
<path style=" stroke:none;fill-rule:nonzero;fill:rgb(100%,100%,100%);fill-opacity:1;" d="M 206.316406 118.75 L 215.316406 118.75 L 215.316406 132.75 L 206.316406 132.75 Z M 206.316406 118.75 "/>
<g style="fill:rgb(0%,0%,100%);fill-opacity:1;">
  <use xlink:href="#glyph0-2" x="206.316406" y="129.888672"/>
</g>
<path style="fill:none;stroke-width:1.2;stroke-linecap:butt;stroke-linejoin:miter;stroke:rgb(0%,0%,0%);stroke-opacity:1;stroke-miterlimit:10;" d="M 186.148438 110.101562 L 172.714844 115.28125 "/>
<path style="fill:none;stroke-width:1.2;stroke-linecap:butt;stroke-linejoin:miter;stroke:rgb(100%,0%,0%);stroke-opacity:1;stroke-miterlimit:10;" d="M 172.714844 115.28125 L 159.28125 120.457031 "/>
<path style="fill:none;stroke-width:1.2;stroke-linecap:butt;stroke-linejoin:miter;stroke:rgb(0%,0%,0%);stroke-opacity:1;stroke-miterlimit:10;" d="M 186.148438 110.101562 L 193.5625 82.28125 "/>
<path style="fill:none;stroke-width:1.2;stroke-linecap:butt;stroke-linejoin:miter;stroke:rgb(0%,0%,0%);stroke-opacity:1;stroke-miterlimit:10;" d="M 193.4375 109.066406 L 199.367188 86.808594 "/>
<path style=" stroke:none;fill-rule:nonzero;fill:rgb(100%,100%,100%);fill-opacity:1;" d="M 140.28125 113.457031 L 159.28125 113.457031 L 159.28125 127.457031 L 140.28125 127.457031 Z M 140.28125 113.457031 "/>
<g style="fill:rgb(100%,0%,0%);fill-opacity:1;">
  <use xlink:href="#glyph0-3" x="140.28125" y="124.595703"/>
  <use xlink:href="#glyph0-1" x="149.304688" y="124.595703"/>
</g>
<path style="fill:none;stroke-width:1.2;stroke-linecap:butt;stroke-linejoin:miter;stroke:rgb(0%,0%,0%);stroke-opacity:1;stroke-miterlimit:10;" d="M 193.5625 82.28125 L 207.9375 81.507812 "/>
<path style="fill:none;stroke-width:1.2;stroke-linecap:butt;stroke-linejoin:miter;stroke:rgb(0%,0%,100%);stroke-opacity:1;stroke-miterlimit:10;" d="M 207.9375 81.507812 L 222.316406 80.734375 "/>
<path style="fill:none;stroke-width:1.2;stroke-linecap:butt;stroke-linejoin:miter;stroke:rgb(0%,0%,100%);stroke-opacity:1;stroke-miterlimit:10;" d="M 222.316406 80.734375 L 230.140625 68.652344 "/>
<path style="fill:none;stroke-width:1.2;stroke-linecap:butt;stroke-linejoin:miter;stroke:rgb(0%,0%,0%);stroke-opacity:1;stroke-miterlimit:10;" d="M 230.140625 68.652344 L 237.964844 56.566406 "/>
<path style="fill:none;stroke-width:1.2;stroke-linecap:butt;stroke-linejoin:miter;stroke:rgb(0%,0%,100%);stroke-opacity:1;stroke-miterlimit:10;" d="M 222.316406 80.734375 L 227.492188 94.167969 "/>
<path style="fill:none;stroke-width:1.2;stroke-linecap:butt;stroke-linejoin:miter;stroke:rgb(0%,0%,0%);stroke-opacity:1;stroke-miterlimit:10;" d="M 227.492188 94.167969 L 232.667969 107.601562 "/>
<path style=" stroke:none;fill-rule:nonzero;fill:rgb(100%,100%,100%);fill-opacity:1;" d="M 218.316406 73.734375 L 227.316406 73.734375 L 227.316406 87.734375 L 218.316406 87.734375 Z M 218.316406 73.734375 "/>
<g style="fill:rgb(0%,0%,100%);fill-opacity:1;">
  <use xlink:href="#glyph0-2" x="218.316406" y="84.873047"/>
</g>
<path style="fill:none;stroke-width:1.2;stroke-linecap:butt;stroke-linejoin:miter;stroke:rgb(0%,0%,0%);stroke-opacity:1;stroke-miterlimit:10;" d="M 231.796875 110.875 L 245.707031 114.582031 "/>
<path style="fill:none;stroke-width:1.2;stroke-linecap:butt;stroke-linejoin:miter;stroke:rgb(100%,0%,0%);stroke-opacity:1;stroke-miterlimit:10;" d="M 245.707031 114.582031 L 259.617188 118.289062 "/>
<path style="fill:none;stroke-width:1.2;stroke-linecap:butt;stroke-linejoin:miter;stroke:rgb(0%,0%,0%);stroke-opacity:1;stroke-miterlimit:10;" d="M 233.539062 104.328125 L 247.453125 108.035156 "/>
<path style="fill:none;stroke-width:1.2;stroke-linecap:butt;stroke-linejoin:miter;stroke:rgb(100%,0%,0%);stroke-opacity:1;stroke-miterlimit:10;" d="M 247.453125 108.035156 L 261.363281 111.746094 "/>
<path style=" stroke:none;fill-rule:nonzero;fill:rgb(100%,100%,100%);fill-opacity:1;" d="M 255.488281 108.019531 L 265.488281 108.019531 L 265.488281 122.019531 L 255.488281 122.019531 Z M 255.488281 108.019531 "/>
<g style="fill:rgb(100%,0%,0%);fill-opacity:1;">
  <use xlink:href="#glyph0-1" x="255.488281" y="119.158203"/>
</g>
<path style="fill:none;stroke-width:1.2;stroke-linecap:butt;stroke-linejoin:miter;stroke:rgb(0%,0%,0%);stroke-opacity:1;stroke-miterlimit:10;" d="M 161.769531 214.863281 L 162.542969 229.238281 "/>
<path style="fill:none;stroke-width:1.2;stroke-linecap:butt;stroke-linejoin:miter;stroke:rgb(100%,0%,0%);stroke-opacity:1;stroke-miterlimit:10;" d="M 162.542969 229.238281 L 163.316406 243.613281 "/>
<path style="fill:none;stroke-width:1.2;stroke-linecap:butt;stroke-linejoin:miter;stroke:rgb(0%,0%,0%);stroke-opacity:1;stroke-miterlimit:10;" d="M 168.535156 214.5 L 169.308594 228.875 "/>
<path style="fill:none;stroke-width:1.2;stroke-linecap:butt;stroke-linejoin:miter;stroke:rgb(100%,0%,0%);stroke-opacity:1;stroke-miterlimit:10;" d="M 169.308594 228.875 L 170.082031 243.25 "/>
<path style="fill:none;stroke-width:1.2;stroke-linecap:butt;stroke-linejoin:miter;stroke:rgb(0%,0%,0%);stroke-opacity:1;stroke-miterlimit:10;" d="M 165.152344 214.679688 L 139.480469 201.644531 "/>
<path style=" stroke:none;fill-rule:nonzero;fill:rgb(100%,100%,100%);fill-opacity:1;" d="M 161.699219 236.433594 L 171.699219 236.433594 L 171.699219 250.433594 L 161.699219 250.433594 Z M 161.699219 236.433594 "/>
<g style="fill:rgb(100%,0%,0%);fill-opacity:1;">
  <use xlink:href="#glyph0-1" x="161.699219" y="247.572266"/>
</g>
<path style="fill:none;stroke-width:1.2;stroke-linecap:butt;stroke-linejoin:miter;stroke:rgb(0%,0%,0%);stroke-opacity:1;stroke-miterlimit:10;" d="M 139.480469 201.644531 L 127.417969 209.5 "/>
<path style="fill:none;stroke-width:1.2;stroke-linecap:butt;stroke-linejoin:miter;stroke:rgb(100%,0%,0%);stroke-opacity:1;stroke-miterlimit:10;" d="M 127.417969 209.5 L 115.355469 217.355469 "/>
<path style="fill:none;stroke-width:1.2;stroke-linecap:butt;stroke-linejoin:miter;stroke:rgb(0%,0%,0%);stroke-opacity:1;stroke-miterlimit:10;" d="M 139.480469 201.644531 L 137.9375 172.894531 "/>
<path style="fill:none;stroke-width:1.2;stroke-linecap:butt;stroke-linejoin:miter;stroke:rgb(0%,0%,0%);stroke-opacity:1;stroke-miterlimit:10;" d="M 146.09375 198.40625 L 144.855469 175.402344 "/>
<path style=" stroke:none;fill-rule:nonzero;fill:rgb(100%,100%,100%);fill-opacity:1;" d="M 96.355469 210.355469 L 115.355469 210.355469 L 115.355469 224.355469 L 96.355469 224.355469 Z M 96.355469 210.355469 "/>
<g style="fill:rgb(100%,0%,0%);fill-opacity:1;">
  <use xlink:href="#glyph0-3" x="96.355469" y="221.494141"/>
  <use xlink:href="#glyph0-1" x="105.378906" y="221.494141"/>
</g>
<path style="fill:none;stroke-width:1.2;stroke-linecap:butt;stroke-linejoin:miter;stroke:rgb(0%,0%,0%);stroke-opacity:1;stroke-miterlimit:10;" d="M 137.9375 172.894531 L 112.265625 159.855469 "/>
<path style="fill:none;stroke-width:1.2;stroke-linecap:butt;stroke-linejoin:miter;stroke:rgb(0%,0%,0%);stroke-opacity:1;stroke-miterlimit:10;" d="M 112.265625 159.855469 L 110.71875 131.105469 "/>
<path style="fill:none;stroke-width:1.2;stroke-linecap:butt;stroke-linejoin:miter;stroke:rgb(0%,0%,0%);stroke-opacity:1;stroke-miterlimit:10;" d="M 105.34375 157.34375 L 104.109375 134.34375 "/>
<path style="fill:none;stroke-width:1.2;stroke-linecap:butt;stroke-linejoin:miter;stroke:rgb(0%,0%,0%);stroke-opacity:1;stroke-miterlimit:10;" d="M 88.136719 175.570312 L 112.265625 159.855469 "/>
<path style="fill:none;stroke-width:1.2;stroke-linecap:butt;stroke-linejoin:miter;stroke:rgb(0%,0%,0%);stroke-opacity:1;stroke-miterlimit:10;" d="M 110.71875 131.105469 L 85.046875 118.066406 "/>
<path style="fill:none;stroke-width:1.2;stroke-linecap:butt;stroke-linejoin:miter;stroke:rgb(0%,0%,0%);stroke-opacity:1;stroke-miterlimit:10;" d="M 85.046875 118.066406 L 84.277344 103.691406 "/>
<path style="fill:none;stroke-width:1.2;stroke-linecap:butt;stroke-linejoin:miter;stroke:rgb(100%,0%,0%);stroke-opacity:1;stroke-miterlimit:10;" d="M 84.277344 103.691406 L 83.503906 89.316406 "/>
<path style="fill:none;stroke-width:1.2;stroke-linecap:butt;stroke-linejoin:miter;stroke:rgb(0%,0%,0%);stroke-opacity:1;stroke-miterlimit:10;" d="M 85.046875 118.066406 L 60.921875 133.78125 "/>
<path style="fill:none;stroke-width:1.2;stroke-linecap:butt;stroke-linejoin:miter;stroke:rgb(0%,0%,0%);stroke-opacity:1;stroke-miterlimit:10;" d="M 86.332031 125.316406 L 67.03125 137.886719 "/>
<path style=" stroke:none;fill-rule:nonzero;fill:rgb(100%,100%,100%);fill-opacity:1;" d="M 74.503906 82.316406 L 93.503906 82.316406 L 93.503906 96.316406 L 74.503906 96.316406 Z M 74.503906 82.316406 "/>
<g style="fill:rgb(100%,0%,0%);fill-opacity:1;">
  <use xlink:href="#glyph0-3" x="74.503906" y="93.455078"/>
  <use xlink:href="#glyph0-1" x="83.527344" y="93.455078"/>
</g>
<path style="fill:none;stroke-width:1.2;stroke-linecap:butt;stroke-linejoin:miter;stroke:rgb(0%,0%,0%);stroke-opacity:1;stroke-miterlimit:10;" d="M 60.921875 133.78125 L 48.085938 127.261719 "/>
<path style="fill:none;stroke-width:1.2;stroke-linecap:butt;stroke-linejoin:miter;stroke:rgb(100%,0%,0%);stroke-opacity:1;stroke-miterlimit:10;" d="M 48.085938 127.261719 L 35.25 120.742188 "/>
<path style="fill:none;stroke-width:1.2;stroke-linecap:butt;stroke-linejoin:miter;stroke:rgb(0%,0%,0%);stroke-opacity:1;stroke-miterlimit:10;" d="M 60.921875 133.78125 L 62.464844 162.53125 "/>
<path style=" stroke:none;fill-rule:nonzero;fill:rgb(100%,100%,100%);fill-opacity:1;" d="M 16.25 113.742188 L 35.25 113.742188 L 35.25 127.742188 L 16.25 127.742188 Z M 16.25 113.742188 "/>
<g style="fill:rgb(100%,0%,0%);fill-opacity:1;">
  <use xlink:href="#glyph0-3" x="16.25" y="124.880859"/>
  <use xlink:href="#glyph0-1" x="25.273438" y="124.880859"/>
</g>
<path style="fill:none;stroke-width:1.2;stroke-linecap:butt;stroke-linejoin:miter;stroke:rgb(0%,0%,0%);stroke-opacity:1;stroke-miterlimit:10;" d="M 62.464844 162.53125 L 88.136719 175.570312 "/>
<path style="fill:none;stroke-width:1.2;stroke-linecap:butt;stroke-linejoin:miter;stroke:rgb(0%,0%,0%);stroke-opacity:1;stroke-miterlimit:10;" d="M 68.101562 157.792969 L 88.640625 168.226562 "/>
</g>
</svg>

<svg xmlns="http://www.w3.org/2000/svg" xmlns:xlink="http://www.w3.org/1999/xlink" width="300pt" height="300pt" viewBox="0 0 300 300"><defs><symbol overflow="visible"><path d="M.594 2.125V-8.47h6V2.126zm.672-.672h4.671V-7.78h-4.67zm0 0"/></symbol><symbol overflow="visible" id="a"><path d="M4.734-7.953c-.867 0-1.554.324-2.062.97-.5.635-.75 1.51-.75 2.624 0 1.094.25 1.965.75 2.61.508.637 1.195.953 2.062.953.852 0 1.532-.316 2.032-.953.507-.645.765-1.516.765-2.61 0-1.113-.257-1.988-.764-2.624-.5-.645-1.18-.97-2.032-.97zm0-.953c1.22 0 2.192.414 2.922 1.234.74.824 1.11 1.93 1.11 3.313 0 1.376-.37 2.477-1.11 3.298C6.926-.24 5.953.17 4.734.17c-1.23 0-2.214-.41-2.953-1.234C1.04-1.882.673-2.984.673-4.36c0-1.382.367-2.488 1.11-3.312.738-.82 1.722-1.234 2.952-1.234zm0 0"/></symbol><symbol overflow="visible" id="b"><path d="M1.172-8.75h1.594l3.89 7.313V-8.75h1.14V0H6.204L2.328-7.313V0H1.172zm0 0"/></symbol><symbol overflow="visible" id="c"><path d="M1.172-8.75H2.36v3.594h4.296V-8.75h1.188V0H6.656v-4.172H2.36V0H1.17zm0 0"/></symbol></defs><g><path fill="#fff" d="M0 0h300v300H0z"/><path d="M162.063 157.18l12.835 6.52" stroke-width="1.2" stroke="#f00" stroke-miterlimit="10" fill="none"/><path d="M174.898 163.7l12.836 6.515M137.938 172.895l12.062-7.86" stroke-width="1.2" stroke="#000" stroke-miterlimit="10" fill="none"/><path d="M150 165.035l12.063-7.855" stroke-width="1.2" stroke="#f00" stroke-miterlimit="10" fill="none"/><path d="M157.063 150.18h10v14h-10zm0 0" fill="#fff"/><use xlink:href="#a" x="157.063" y="161.318" fill="#f00"/><path d="M187.734 170.215l1.547 28.754M194.656 172.727l1.235 23.003M211.863 154.504l-24.13 15.71M189.28 198.97l25.673 13.034M189.28 198.97l-24.128 15.71M214.953 212.004l24.125-15.71M213.668 204.758l19.3-12.57M239.078 196.293l-1.543-28.754M239.078 196.293l25.672 13.035M237.535 167.54l-25.672-13.036M231.898 172.277l-20.54-10.43M211.863 154.504l-.773-14.375" stroke-width="1.2" stroke="#000" stroke-miterlimit="10" fill="none"/><path d="M211.09 140.13l-.774-14.38M210.316 125.75l-12.086-7.824" stroke-width="1.2" stroke="#00f" stroke-miterlimit="10" fill="none"/><path d="M198.23 117.926l-12.082-7.824M232.668 107.602l-11.176 9.074" stroke-width="1.2" stroke="#000" stroke-miterlimit="10" fill="none"/><path d="M221.492 116.676l-11.176 9.074" stroke-width="1.2" stroke="#00f" stroke-miterlimit="10" fill="none"/><path d="M206.316 118.75h9v14h-9zm0 0" fill="#fff"/><use xlink:href="#b" x="206.316" y="129.889" fill="#00f"/><path d="M186.148 110.102l-13.433 5.18" stroke-width="1.2" stroke="#000" stroke-miterlimit="10" fill="none"/><path d="M172.715 115.28l-13.434 5.177" stroke-width="1.2" stroke="#f00" stroke-miterlimit="10" fill="none"/><path d="M186.148 110.102l7.415-27.82M193.438 109.066l5.93-22.257" stroke-width="1.2" stroke="#000" stroke-miterlimit="10" fill="none"/><path d="M140.28 113.457h19v14h-19zm0 0" fill="#fff"/><g fill="#f00"><use xlink:href="#c" x="140.281" y="124.596"/><use xlink:href="#a" x="149.305" y="124.596"/></g><path d="M193.563 82.28l14.375-.772" stroke-width="1.2" stroke="#000" stroke-miterlimit="10" fill="none"/><path d="M207.938 81.508l14.378-.774M222.316 80.734l7.825-12.082" stroke-width="1.2" stroke="#00f" stroke-miterlimit="10" fill="none"/><path d="M230.14 68.652l7.825-12.086" stroke-width="1.2" stroke="#000" stroke-miterlimit="10" fill="none"/><path d="M222.316 80.734l5.176 13.434" stroke-width="1.2" stroke="#00f" stroke-miterlimit="10" fill="none"/><path d="M227.492 94.168l5.176 13.434" stroke-width="1.2" stroke="#000" stroke-miterlimit="10" fill="none"/><path d="M218.316 73.734h9v14h-9zm0 0" fill="#fff"/><use xlink:href="#b" x="218.316" y="84.873" fill="#00f"/><path d="M231.797 110.875l13.91 3.707" stroke-width="1.2" stroke="#000" stroke-miterlimit="10" fill="none"/><path d="M245.707 114.582l13.91 3.707" stroke-width="1.2" stroke="#f00" stroke-miterlimit="10" fill="none"/><path d="M233.54 104.328l13.913 3.707" stroke-width="1.2" stroke="#000" stroke-miterlimit="10" fill="none"/><path d="M247.453 108.035l13.91 3.71" stroke-width="1.2" stroke="#f00" stroke-miterlimit="10" fill="none"/><path d="M255.488 108.02h10v14h-10zm0 0" fill="#fff"/><use xlink:href="#a" x="255.488" y="119.158" fill="#f00"/><path d="M161.77 214.863l.773 14.375" stroke-width="1.2" stroke="#000" stroke-miterlimit="10" fill="none"/><path d="M162.543 229.238l.773 14.375" stroke-width="1.2" stroke="#f00" stroke-miterlimit="10" fill="none"/><path d="M168.535 214.5l.774 14.375" stroke-width="1.2" stroke="#000" stroke-miterlimit="10" fill="none"/><path d="M169.31 228.875l.772 14.375" stroke-width="1.2" stroke="#f00" stroke-miterlimit="10" fill="none"/><path d="M165.152 214.68l-25.672-13.035" stroke-width="1.2" stroke="#000" stroke-miterlimit="10" fill="none"/><path d="M161.7 236.434h10v14h-10zm0 0" fill="#fff"/><use xlink:href="#a" x="161.699" y="247.572" fill="#f00"/><path d="M139.48 201.645l-12.062 7.855" stroke-width="1.2" stroke="#000" stroke-miterlimit="10" fill="none"/><path d="M127.418 209.5l-12.063 7.855" stroke-width="1.2" stroke="#f00" stroke-miterlimit="10" fill="none"/><path d="M139.48 201.645l-1.542-28.75M146.094 198.406l-1.24-23.004" stroke-width="1.2" stroke="#000" stroke-miterlimit="10" fill="none"/><path d="M96.355 210.355h19v14h-19zm0 0" fill="#fff"/><g fill="#f00"><use xlink:href="#c" x="96.355" y="221.494"/><use xlink:href="#a" x="105.379" y="221.494"/></g><path d="M137.938 172.895l-25.672-13.04M112.266 159.855l-1.547-28.75M105.344 157.344l-1.235-23M88.137 175.57l24.13-15.715M110.72 131.105l-25.673-13.04M85.047 118.066l-.77-14.375" stroke-width="1.2" stroke="#000" stroke-miterlimit="10" fill="none"/><path d="M84.277 103.69l-.773-14.374" stroke-width="1.2" stroke="#f00" stroke-miterlimit="10" fill="none"/><path d="M85.047 118.066L60.922 133.78M86.332 125.316l-19.3 12.57" stroke-width="1.2" stroke="#000" stroke-miterlimit="10" fill="none"/><path d="M74.504 82.316h19v14h-19zm0 0" fill="#fff"/><g fill="#f00"><use xlink:href="#c" x="74.504" y="93.455"/><use xlink:href="#a" x="83.527" y="93.455"/></g><path d="M60.922 133.78l-12.836-6.518" stroke-width="1.2" stroke="#000" stroke-miterlimit="10" fill="none"/><path d="M48.086 127.262l-12.836-6.52" stroke-width="1.2" stroke="#f00" stroke-miterlimit="10" fill="none"/><path d="M60.922 133.78l1.543 28.75" stroke-width="1.2" stroke="#000" stroke-miterlimit="10" fill="none"/><path d="M16.25 113.742h19v14h-19zm0 0" fill="#fff"/><g fill="#f00"><use xlink:href="#c" x="16.25" y="124.881"/><use xlink:href="#a" x="25.273" y="124.881"/></g><path d="M62.465 162.53l25.672 13.04M68.102 157.793l20.54 10.434" stroke-width="1.2" stroke="#000" stroke-miterlimit="10" fill="none"/></g></svg>
